X:13
T:Copperplate, New and Old
T:New
M:4/4
K:G
||:G2dG BGdG|G2dc BGGB|A2[eE]A cAeA|A2[eE]d cAFA|
G2dG BGdG|G2d[cG] BGG2|ABcd ef g/f/e|1aged cAFA:||2aged ^cdef||:
g2gf g2ef|g/f/e dc BGGB|[Ae]a a/g/a agea|aged B/^c/d ef|
g2gf g2ef|g/f/e dc BGGB|ABcd efge|1aged ^cdef:||2aged cAFA||
T:Old
K:Ador
||:A2EA cAAe|aged cAFA|G2DG BGBd|gedc BAGB|
A2EA cAAe|aged cAGB|ABcd efge|aged cAA2:||:
ageg a2eg|aged cAA2|gfef g2ef|gfge dBGB|
ageg a2eg|aged cAGB|ABcd efge|aged cAA2|

